images/icons/place_24x24.svg

<svg xmlns="http://www.w3.org/2000/svg" height="24" viewBox="0 0 24 24" width="24"><path d="M12 12c-1.1 0-2-.9-2-2s.9-2 2-2 2 .9 2 2-.9 2-2 2zm6-1.8C18 6.57 15.35 4 12 4s-6 2.57-6 6.2c0 2.34 1.95 5.44 6 9.14 4.05-3.7 6-6.8 6-9.14zM12 2c4.2 0 8 3.22 8 8.2 0 3.32-2.67 7.25-8 11.8-5.33-4.55-8-8.48-8-11.8C4 5.22 7.8 2 12 2z"/><path d="M0 0h24v24H0z" fill="none"/></svg>

<svg width="24" height="24" viewBox="0 0 24 24" fill="none" xmlns="http://www.w3.org/2000/svg">
<path d="M12 12C10.9 12 10 11.1 10 10C10 8.9 10.9 8 12 8C13.1 8 14 8.9 14 10C14 11.1 13.1 12 12 12ZM18 10.2C18 6.57 15.35 4 12 4C8.65 4 6 6.57 6 10.2C6 12.54 7.95 15.64 12 19.34C16.05 15.64 18 12.54 18 10.2ZM12 2C16.2 2 20 5.22 20 10.2C20 13.52 17.33 17.45 12 22C6.67 17.45 4 13.52 4 10.2C4 5.22 7.8 2 12 2Z" fill="#333333"/>
</svg>
